icons/svg/8x8/__library/outline.svg

<svg width="8" height="8" fill="none" xmlns="http://www.w3.org/2000/svg">
  <path fill-rule="evenodd" clip-rule="evenodd" d="M2 7h1V4H2v3zm2-4.899L5.349 3H2.651L4 2.101zM5 7h1V4H5v3zM0 8h8L7 7V4a.5.5 0 00.277-.916l-3-2a.499.499 0 00-.554 0l-3 2A.5.5 0 001 4v3L0 8z" fill="#000"/>
</svg>

<svg xmlns="http://www.w3.org/2000/svg" width="8" height="8" viewBox="0 0 8 8">
  <path fill-rule="evenodd" d="M2,7 L3,7 L3,4 L2,4 L2,7 Z M4,2.101 L5.349,3 L2.651,3 L4,2.101 Z M5,7 L6,7 L6,4 L5,4 L5,7 Z M0,8 L8,8 L7,7 L7,4 C7.221,4 7.415,3.856 7.479,3.645 C7.542,3.434 7.461,3.206 7.277,3.084 L4.277,1.084 C4.109,0.972 3.891,0.972 3.723,1.084 L0.723,3.084 C0.539,3.206 0.458,3.434 0.521,3.645 C0.585,3.856 0.779,4 1,4 L1,7 L0,8 Z"/>
</svg>
